img/page/main-block/partners/03.svg

<svg width="207" height="59" viewBox="0 0 207 59" fill="none" xmlns="http://www.w3.org/2000/svg">
<path d="M29.5 0C25.6261 0 21.7899 0.763123 18.2108 2.24554C14.6317 3.72813 11.3797 5.90101 8.6403 8.6403C5.90101 11.3797 3.72813 14.6317 2.24554 18.2108C0.763123 21.7899 0 25.6261 0 29.5C0 33.3739 0.763123 37.2101 2.24554 40.7892C3.72813 44.3683 5.90101 47.6203 8.6403 50.3597C11.3797 53.099 14.6317 55.2719 18.2108 56.7545C21.7899 58.2369 25.6261 59 29.5 59V44.25C27.5629 44.25 25.6449 43.8685 23.8554 43.1271C22.0658 42.3859 20.4398 41.2995 19.0702 39.9298C17.7005 38.5602 16.6141 36.9342 15.8729 35.1446C15.1315 33.3551 14.75 31.4371 14.75 29.5C14.75 27.5629 15.1315 25.6449 15.8729 23.8554C16.6141 22.0658 17.7005 20.4398 19.0702 19.0702C20.4398 17.7005 22.0658 16.6141 23.8554 15.8729C25.6449 15.1315 27.5629 14.75 29.5 14.75V0Z" fill="#0F52FF"/>
<path d="M29.5 39.3333C34.9308 39.3333 39.3333 34.9307 39.3333 29.5C39.3333 24.0692 34.9308 19.6666 29.5 19.6666C24.0692 19.6666 19.6667 24.0692 19.6667 29.5C19.6667 34.9307 24.0692 39.3333 29.5 39.3333Z" fill="#0F52FF"/>
<path d="M0 29.5C0 33.3739 0.763123 37.2101 2.24554 40.7892C3.72813 44.3683 5.90101 47.6203 8.6403 50.3597C11.3797 53.099 14.6317 55.2719 18.2108 56.7545C21.7899 58.2369 25.6261 59 29.5 59C33.3739 59 37.2101 58.2369 40.7892 56.7545C44.3683 55.2719 47.6203 53.099 50.3597 50.3597C53.099 47.6203 55.2719 44.3683 56.7545 40.7892C58.2369 37.2101 59 33.3739 59 29.5H44.25C44.25 31.4371 43.8685 33.3551 43.1271 35.1446C42.3859 36.9342 41.2995 38.5602 39.9298 39.9298C38.5602 41.2995 36.9342 42.3859 35.1446 43.1271C33.3551 43.8685 31.4371 44.25 29.5 44.25C27.5629 44.25 25.6449 43.8685 23.8554 43.1271C22.0658 42.3859 20.4398 41.2995 19.0702 39.9298C17.7005 38.5602 16.6141 36.9342 15.8729 35.1446C15.1315 33.3551 14.75 31.4371 14.75 29.5H0Z" fill="#5BD0F4"/>
<path d="M39.3334 29.5001C39.3334 26.8921 38.2974 24.391 36.4534 22.5468C34.6092 20.7027 32.1081 19.6666 29.5001 19.6666C26.8921 19.6666 24.3911 20.7027 22.5469 22.5468C20.7027 24.391 19.6667 26.8921 19.6667 29.5001H29.5001H39.3334Z" fill="#5BD0F4"/>
<path d="M74.4066 18.4164H70.7427V38.7714H74.4066V18.4164Z" fill="#0F52FF"/>
<path d="M76.7992 31.5605C76.7992 36.2712 80.056 39.1791 84.3597 39.1791C88.6633 39.1791 91.9201 36.2712 91.9201 31.5605C91.9201 26.8498 88.6633 23.9419 84.3597 23.9419C80.056 23.9419 76.7992 26.8498 76.7992 31.5605ZM80.4631 31.5605C80.4631 28.7689 82.0915 27.1405 84.3597 27.1405C86.6278 27.1405 88.2562 28.7689 88.2562 31.5605C88.2562 34.352 86.6278 35.9804 84.3597 35.9804C82.0915 35.9804 80.4631 34.352 80.4631 31.5605Z" fill="#0F52FF"/>
<path d="M105.013 24.349V26.2972H104.722C103.85 25.0469 102.454 23.9419 99.9533 23.9419C96.5221 23.9419 93.4397 26.8498 93.4397 31.3279C93.4397 35.806 96.5221 38.7138 99.9533 38.7138C102.454 38.7138 103.85 37.5797 104.664 36.4457H104.955V37.8415C104.955 40.633 103.326 41.9125 100.942 41.9125C98.5575 41.9125 97.3362 40.633 96.8418 38.9754L93.556 40.4004C94.3121 42.5812 96.522 44.9948 101 44.9948C105.595 44.9948 108.619 42.5812 108.619 37.9286V24.349H105.013ZM101.058 35.5733C98.7902 35.5733 97.1036 33.9449 97.1036 31.3279C97.1036 28.7108 98.7902 27.0824 101.058 27.0824C103.326 27.0824 105.013 28.7108 105.013 31.3279C105.013 33.9449 103.326 35.5733 101.058 35.5733Z" fill="#0F52FF"/>
<path d="M110.989 31.5605C110.989 36.2712 114.246 39.1791 118.55 39.1791C122.853 39.1791 126.11 36.2712 126.11 31.5605C126.11 26.8498 122.853 23.9419 118.55 23.9419C114.246 23.9419 110.989 26.8498 110.989 31.5605ZM114.653 31.5605C114.653 28.7689 116.282 27.1405 118.55 27.1405C120.818 27.1405 122.446 28.7689 122.446 31.5605C122.446 34.352 120.818 35.9804 118.55 35.9804C116.282 35.9804 114.653 34.352 114.653 31.5605Z" fill="#0F52FF"/>
<path d="M128.986 20.161C128.986 21.6441 130.12 22.6618 131.575 22.6618C133.028 22.6618 134.163 21.6441 134.163 20.161C134.163 18.6781 133.028 17.6603 131.575 17.6603C130.12 17.6603 128.986 18.6781 128.986 20.161ZM133.406 24.3483H129.743V38.7713H133.406V24.3483Z" fill="#5BD0F4"/>
<path d="M136.671 44.5877H140.336V36.9109H140.626C141.44 38.0741 142.836 39.1791 145.337 39.1791C148.768 39.1791 151.851 36.2712 151.851 31.5605C151.851 26.8498 148.768 23.9419 145.337 23.9419C142.836 23.9419 141.44 25.0469 140.568 26.2973H140.277V24.349H136.671V44.5877ZM144.231 36.0386C141.964 36.0386 140.277 34.4102 140.277 31.5605C140.277 28.7108 141.964 27.0824 144.231 27.0824C146.5 27.0824 148.186 28.7108 148.186 31.5605C148.186 34.4102 146.5 36.0386 144.231 36.0386Z" fill="#5BD0F4"/>
<path d="M153.989 28.391C153.989 31.2407 156.372 32.2875 159.396 32.8691L160.153 33.0144C161.955 33.3634 162.769 33.7996 162.769 34.7301C162.769 35.6606 161.955 36.3875 160.27 36.3875C158.582 36.3875 157.217 35.6896 156.837 33.596L153.464 34.4683C153.96 37.4925 156.489 39.1791 160.27 39.1791C163.933 39.1791 166.318 37.4635 166.318 34.4393C166.318 31.415 163.875 30.601 160.619 29.9612L159.862 29.8158C158.35 29.525 157.535 29.1179 157.535 28.1584C157.535 27.286 158.292 26.7334 159.688 26.7334C161.084 26.7334 162.072 27.315 162.421 28.8852L165.736 27.8676C165.038 25.5413 162.916 23.9419 159.688 23.9419C156.256 23.9419 153.989 25.5413 153.989 28.391Z" fill="#5BD0F4"/>
<path d="M182.775 38.7714V24.3484H179.112V31.7925C179.112 34.4677 177.804 36.038 175.564 36.038C173.586 36.038 172.482 34.9621 172.482 32.7812V24.3484H168.817V32.9556C168.817 36.5324 171.058 39.004 174.431 39.004C177.076 39.004 178.298 37.8408 178.879 36.6195H179.169V38.7714H182.775Z" fill="#5BD0F4"/>
<path d="M186.025 24.3486V38.7716H189.69V30.1643C189.69 28.187 190.621 27.082 192.306 27.082C193.761 27.082 194.633 27.8962 194.633 29.4664V38.7716H198.297V30.1643C198.297 28.187 199.228 27.082 200.914 27.082C202.368 27.082 203.24 27.8962 203.24 29.4664V38.7716H206.905V29.292C206.905 25.8025 204.752 24.116 202.077 24.116C199.722 24.116 198.646 25.1628 197.948 26.3841H197.657C196.988 25.0175 195.796 24.116 193.702 24.116C191.609 24.116 190.474 25.0465 189.923 26.1515H189.631V24.3486H186.025Z" fill="#5BD0F4"/>
</svg>

<svg width="207" height="59" fill="none" xmlns="http://www.w3.org/2000/svg"><path d="M29.5 0A29.502 29.502 0 0 0 0 29.5 29.502 29.502 0 0 0 29.5 59V44.25a14.747 14.747 0 0 1-13.627-9.105 14.747 14.747 0 0 1 7.982-19.272A14.747 14.747 0 0 1 29.5 14.75V0Z" fill="#0F52FF"/><path d="M29.5 39.333c5.43 0 9.833-4.402 9.833-9.833 0-5.43-4.402-9.833-9.833-9.833-5.43 0-9.833 4.402-9.833 9.833 0 5.43 4.402 9.833 9.833 9.833Z" fill="#0F52FF"/><path d="M0 29.5A29.502 29.502 0 0 0 29.5 59 29.503 29.503 0 0 0 59 29.5H44.25a14.747 14.747 0 0 1-9.105 13.627 14.747 14.747 0 0 1-19.272-7.982A14.747 14.747 0 0 1 14.75 29.5H0ZM39.333 29.5a9.834 9.834 0 0 0-19.666 0h19.666Z" fill="#5BD0F4"/><path d="M74.407 18.416h-3.664v20.355h3.664V18.416ZM76.8 31.56c0 4.711 3.256 7.62 7.56 7.62 4.303 0 7.56-2.909 7.56-7.62 0-4.71-3.257-7.618-7.56-7.618-4.304 0-7.56 2.908-7.56 7.619Zm3.663 0c0-2.791 1.629-4.42 3.897-4.42s3.896 1.629 3.896 4.42c0 2.792-1.628 4.42-3.896 4.42-2.269 0-3.897-1.628-3.897-4.42ZM105.013 24.349v1.948h-.291c-.872-1.25-2.268-2.355-4.769-2.355-3.43 0-6.513 2.908-6.513 7.386s3.082 7.386 6.513 7.386c2.501 0 3.897-1.134 4.711-2.268h.291v1.396c0 2.791-1.629 4.07-4.013 4.07s-3.606-1.279-4.1-2.937L93.556 40.4c.756 2.181 2.966 4.595 7.444 4.595 4.595 0 7.619-2.414 7.619-7.066v-13.58h-3.606Zm-3.955 11.224c-2.268 0-3.954-1.628-3.954-4.245s1.686-4.246 3.954-4.246c2.268 0 3.955 1.629 3.955 4.246 0 2.617-1.687 4.245-3.955 4.245ZM110.989 31.56c0 4.711 3.257 7.62 7.561 7.62 4.303 0 7.56-2.909 7.56-7.62 0-4.71-3.257-7.618-7.56-7.618-4.304 0-7.561 2.908-7.561 7.619Zm3.664 0c0-2.791 1.629-4.42 3.897-4.42s3.896 1.629 3.896 4.42c0 2.792-1.628 4.42-3.896 4.42s-3.897-1.628-3.897-4.42Z" fill="#0F52FF"/><path d="M128.986 20.161c0 1.483 1.134 2.5 2.589 2.5 1.453 0 2.588-1.017 2.588-2.5s-1.135-2.5-2.588-2.5c-1.455 0-2.589 1.017-2.589 2.5Zm4.42 4.187h-3.663v14.423h3.663V24.348ZM136.671 44.588h3.665V36.91h.29c.814 1.163 2.21 2.268 4.711 2.268 3.431 0 6.514-2.908 6.514-7.619 0-4.71-3.083-7.618-6.514-7.618-2.501 0-3.897 1.105-4.769 2.355h-.291V24.35h-3.606v20.239Zm7.56-8.55c-2.267 0-3.954-1.628-3.954-4.477 0-2.85 1.687-4.479 3.954-4.479 2.269 0 3.955 1.629 3.955 4.479s-1.686 4.478-3.955 4.478ZM153.989 28.391c0 2.85 2.383 3.897 5.407 4.478l.757.145c1.802.35 2.616.786 2.616 1.716 0 .93-.814 1.658-2.499 1.658-1.688 0-3.053-.698-3.433-2.792l-3.373.872c.496 3.024 3.025 4.711 6.806 4.711 3.663 0 6.048-1.715 6.048-4.74 0-3.024-2.443-3.838-5.699-4.478l-.757-.145c-1.512-.291-2.327-.698-2.327-1.658 0-.872.757-1.425 2.153-1.425s2.384.582 2.733 2.152l3.315-1.017c-.698-2.327-2.82-3.926-6.048-3.926-3.432 0-5.699 1.6-5.699 4.449ZM182.775 38.771V24.348h-3.663v7.445c0 2.675-1.308 4.245-3.548 4.245-1.978 0-3.082-1.076-3.082-3.257v-8.433h-3.665v8.608c0 3.576 2.241 6.048 5.614 6.048 2.645 0 3.867-1.163 4.448-2.384h.29v2.151h3.606ZM186.025 24.349v14.423h3.665v-8.608c0-1.977.931-3.082 2.616-3.082 1.455 0 2.327.814 2.327 2.384v9.306h3.664v-8.608c0-1.977.931-3.082 2.617-3.082 1.454 0 2.326.814 2.326 2.384v9.306h3.665v-9.48c0-3.49-2.153-5.176-4.828-5.176-2.355 0-3.431 1.047-4.129 2.268h-.291c-.669-1.367-1.861-2.268-3.955-2.268-2.093 0-3.228.93-3.779 2.035h-.292V24.35h-3.606Z" fill="#5BD0F4"/></svg>
